icons/svg/minus-box.svg

﻿<?xml version="1.0" encoding="utf-8"?>
<!DOCTYPE svg PUBLIC "-//W3C//DTD SVG 1.1//EN" "http://www.w3.org/Graphics/SVG/1.1/DTD/svg11.dtd">
<svg xmlns="http://www.w3.org/2000/svg" xmlns:xlink="http://www.w3.org/1999/xlink" version="1.1" baseProfile="full" width="24" height="24" viewBox="0 0 24.00 24.00" enable-background="new 0 0 24.00 24.00" xml:space="preserve">
	<path fill="#000000" fill-opacity="1" stroke-width="0.2" stroke-linejoin="round" d="M 16.9994,12.998L 6.99936,12.998L 6.99936,10.998L 16.9994,10.998M 18.9994,2.99805L 4.99936,2.99805C 3.89336,2.99805 2.99936,3.89404 2.99936,4.99805L 2.99936,18.998C 2.99936,20.1021 3.89336,20.998 4.99936,20.998L 18.9994,20.998C 20.1024,20.998 20.9994,20.1021 20.9994,18.998L 20.9994,4.99805C 20.9994,3.89404 20.1024,2.99805 18.9994,2.99805 Z "/>
</svg>

<svg xmlns="http://www.w3.org/2000/svg" version="1.1" baseProfile="full" width="24" height="24" viewBox="0 0 24.00 24.00" xml:space="preserve"><path fill="#000" fill-opacity="1" stroke-width=".2" stroke-linejoin="round" d="M17 12.998H7v-2h10m2-8H5c-1.107 0-2 .896-2 2v14c0 1.104.893 2 2 2h14c1.102 0 2-.896 2-2v-14c0-1.104-.898-2-2-2z"/></svg>
